!!!!SEGMENT: pl-kk--kk-i-374--001_anonim--o-maria-virgo-pia.krn
!!!cenid: 17xx:1971
!!!COM: Anonim
!!!COM-rismid: pe30004985
!!!CDT:
!!!CNT:
!!!OTL: O Maria virgo pia
!!!PDT:
!!!AGN: Sacred
!!!SMS-siglum: PL-Kk
!!!SMS-shelfmark: Kk.I.374
!!!SMS-shelfwork: 001 W
!!!SMS-variant:
!!!SMS-altvar:
!!!NIFC-rismid: 1001143613
!!!URL-scan: http://repozytorium.nifc.pl/skany/pl-kk-nut--i-374
!!!ONB-nifc: UWAGA: utwory w zbiorze: 1. O Maria virgo pia, 2. Salve decus, 3. O Maria stella maris
**kern	**text
*Iempty	*
*I"	*
*I'[B.]	*
*clefF4	*
*k[]	*
*d:	*
=1	=1
1D\	O
2D/	Ma-
=2	=2
1D\	-ri-
2C#X/	-a
=3	=3
1D\	Vir-
2BB-X/	-go
=4	=4
1AA/	Pi-
2AA/	-a
=5	=5
1FF#X/	ſar-
2FF#/	-dis
=6	=6
1GG/	au-
2AA/	-ris
=7	=7
1BB-X/	Lin-
2C/	-gua
=8	=8
1FF/	mu-
2FF/	-tis
=9	=9
1F\	greſ-
*2\right	*
!LO:TX:a:t=P:problem:custos f	!
2E\	-sus
!!LO:LB:g=original
=10	=10
1F\	clau-
2A\	-dis
=11	=11
1F\	lu-
2G\	-men
=12	=12
1C/	ca(e)-
2C/	-cis
=13	=13
1AA/	con-
2BB/	-so-
=14	=14
1C/	-la-
!LO:TX:t=P:problem:2\right:global	!
2F\	-trix
=15	=15
1D\	af-
2E\	-flic-
=16	=16
1AA/	-to-
2AA/	-rum
=17	=17
1D\	con-
2E\	-so-
=18	=18
1F\	-la-
!LO:TX:a:t=P:problem:custos g	!
2B-X\	-trix
!!LO:LB:g=original
=19	=19
1G\	aff-
2A\	-lic-
=20	=20
1D\	-to-
2D/	-rum
=21||	=21||
1D\	E-
2D/	-ia
=22	=22
1D\	er-
2C#X/	-go
=23	=23
1D\	o
2BB-X/	Ma-
=24	=24
1AA/	-ri-
2AA/	-a
=25	=25
1FF#X/	in-
2FF#/	-ter
=26	=26
1GG/	om-
2AA/	-nes
=27-	=27
1BB-X/	ſin-
!LO:TX:a:t=P:problem:custos F	!
2C/	-gu-
!!LO:LB:g=original
=28-	=28
1FF/	-la-
2FF/	-ris
=29	=29
1F\	Nos
2E\	ab
=30	=30
1F\	hos-
2A\	-te
=31	=31
1F\	et
2G\	à
=32	=32
1C/	peſ-
2C/	-te
=33	=33
1AA/	Nos
2BB/	ab
=34	=34
1C/	hos-
2F\	-te
=35	=35
1D\	et
2E\	à
=36	=36
1AA/	pes-
!LO:TX:a:t=P:problem:custos d	!
2AA/	-te
!!LO:LB:g=original
=37-	=37
1D\	ma-
2E\	-la
=38	=38
1F\	ma-
2B-X\	-re
=39	=39
1G\	que
2A\	ſer-
=40	=40
1D\	-va-
2D/	-ris
=41||	=41||
1D\	Vir-
2D/	-go
=42	=42
1D\	a-
2C#X/	-men
=43	=43
1D\	o
2BB-X/	ſla-
=44	=44
1AA/	-vi-
2AA/	-a
=45	=45
1FF#X/	nos-
!LO:TX:a:t=P:problem:custos G	!
2FF#/	-trum
!!LO:LB:g=original
=46-	=46
1GG/	es-
2AA/	-to
=47	=47
1BB-X/	tu
2C/	sol-
=48	=48
1FF/	-a-
2FF/	-men
=49	=49
1F\	No-
2E\	-men
=50	=50
1F\	tu-
2A\	-um
=51	=51
1F\	ſit
2G\	Noſ-
=52	=52
1C/	-tro-
2C/	-rum
=53	=53
(>1AA/	in
2BB/)	.
=54	=54
1C/	Vi-
!LO:TX:a:t=P:problem:custos d	!
2F\	-ta
!!LO:LB:g=original
=55-	=55
1D\	quam
2E\	in
=56	=56
1AA/	mor-
2AA/	-te
=57	=57
(1D\	in
2E\)	.
=58	=58
1F\	Vi-
2B-X\	-ta
=59-	=59
1G\	quam
2A\	in
=60	=60
1D\	Mor-
2D/	-te.
=61||	=61||
1D\	a-
2D/	-men
=62	=62
1D\	a-
2C#X/	-men
=63	=63
1D\	Ma-
2BB-X/	.
!!LO:LB:g=original
=64	=64
1AA/	-ri-
2AA/	-a
=65	=65
1FF#X/	ca(e)-
2FF#/	-li
=66	=66
1GG/	mun-
2AA/	-di
=67	=67
1BB-X/	Hie-
2C/	-rar-
=68	=68
1FF/	-chi-
2FF/	-a
=69	=69
1F\	nos
2E\	com-
=70	=70
1F\	-men-
2A\	-da
=71	=71
1F\	Na-
2G\	-to
=72	=72
1C/	tu-
!LO:TX:a:t=P:problem:custos A	!
2C/	-o
!!LO:LB:g=original
=73	=73
1AA/	dul-
2BB/	-ci
=74	=74
1C/	Je-
2F\	-ſu
=75	=75
1D\	o
2E\	ma-
=76	=76
1AA/	-ri-
2AA/	-a
=77	=77
1D\	dul-
2E\	-ci
=78	=78
1F\	Je-
2B-X\	-ſu
=79	=79
1G\	o
2A\	Ma-
=80	=80
1D\	-ri-
2D/	-a
==	==
*-	*-
!!!EED: Leszek Kubiak
!!!EST: 2021-02-25
!!!ENC: Mateusz Solarz
!!!END: 2021-02-09
